app/assets/images/niveaupreA1-blanc.svg

<svg width="20" height="20" viewBox="0 0 20 20" fill="none" xmlns="http://www.w3.org/2000/svg">
<path d="M6.6035 3.91636C6.65683 3.91636 6.70016 3.93414 6.7335 3.96969C6.76683 4.00525 6.7835 4.04969 6.7835 4.10303V6.04636C6.7835 6.10414 6.7635 6.15303 6.7235 6.19303C6.68572 6.23081 6.63794 6.24969 6.58016 6.24969C6.54905 6.24969 6.51794 6.24525 6.48683 6.23636C6.45794 6.22525 6.43683 6.21081 6.4235 6.19303L5.20016 4.63969V6.06303C5.20016 6.11636 5.18238 6.16081 5.14683 6.19636C5.1135 6.23192 5.06905 6.24969 5.0135 6.24969C4.96016 6.24969 4.91683 6.23192 4.8835 6.19636C4.85016 6.16081 4.8335 6.11636 4.8335 6.06303V4.11969C4.8335 4.06192 4.85238 4.01414 4.89016 3.97636C4.93016 3.93636 4.97905 3.91636 5.03683 3.91636C5.07016 3.91636 5.10238 3.92303 5.1335 3.93636C5.16683 3.94969 5.19127 3.96747 5.20683 3.98969L6.42016 5.53636V4.10303C6.42016 4.04969 6.43683 4.00525 6.47016 3.96969C6.50572 3.93414 6.55016 3.91636 6.6035 3.91636Z" fill="#FBF9FA"/>
<path d="M7.628 6.04636C7.628 6.10414 7.60911 6.15303 7.57133 6.19303C7.53356 6.23081 7.48578 6.24969 7.428 6.24969C7.37022 6.24969 7.32245 6.23081 7.28467 6.19303C7.24689 6.15303 7.228 6.10414 7.228 6.04636V4.66969C7.228 4.61192 7.24689 4.56414 7.28467 4.52636C7.32245 4.48636 7.37022 4.46636 7.428 4.46636C7.48578 4.46636 7.53356 4.48636 7.57133 4.52636C7.60911 4.56414 7.628 4.61192 7.628 4.66969V6.04636ZM7.42467 4.24969C7.34911 4.24969 7.29578 4.23747 7.26467 4.21303C7.23356 4.18858 7.218 4.14525 7.218 4.08303V4.01969C7.218 3.95747 7.23467 3.91414 7.268 3.88969C7.30133 3.86525 7.35467 3.85303 7.428 3.85303C7.50578 3.85303 7.56022 3.86525 7.59133 3.88969C7.62245 3.91414 7.638 3.95747 7.638 4.01969V4.08303C7.638 4.14747 7.62133 4.19192 7.588 4.21636C7.55689 4.23858 7.50245 4.24969 7.42467 4.24969Z" fill="#FBF9FA"/>
<path d="M9.40909 4.46969C9.46243 4.46969 9.50687 4.48747 9.54243 4.52303C9.57798 4.55636 9.59576 4.59858 9.59576 4.64969C9.59576 4.67636 9.58687 4.70969 9.56909 4.74969L8.94576 6.12303C8.93021 6.16081 8.90687 6.19081 8.87576 6.21303C8.84687 6.23525 8.81354 6.24747 8.77576 6.24969L8.74576 6.25303C8.70798 6.25303 8.67243 6.24192 8.63909 6.21969C8.60798 6.19525 8.58354 6.16303 8.56576 6.12303L7.94576 4.74969C7.93021 4.71414 7.92243 4.67858 7.92243 4.64303C7.92243 4.59858 7.94132 4.55858 7.97909 4.52303C8.01687 4.48525 8.06354 4.46636 8.11909 4.46636C8.16132 4.46636 8.20021 4.47747 8.23576 4.49969C8.27132 4.52192 8.29798 4.55303 8.31576 4.59303L8.77576 5.64636L9.23243 4.59636C9.25021 4.55414 9.27465 4.52192 9.30576 4.49969C9.33687 4.47747 9.37132 4.46747 9.40909 4.46969Z" fill="#FBF9FA"/>
<path d="M11.4946 5.31636C11.4923 5.36969 11.4712 5.41303 11.4312 5.44636C11.3912 5.47969 11.3446 5.49636 11.2912 5.49636H10.1912C10.2179 5.62747 10.279 5.73081 10.3746 5.80636C10.4701 5.87969 10.5779 5.91636 10.6979 5.91636C10.789 5.91636 10.8601 5.90858 10.9112 5.89303C10.9623 5.87525 11.0023 5.85747 11.0312 5.83969C11.0623 5.81969 11.0835 5.80636 11.0946 5.79969C11.1346 5.77969 11.1723 5.76969 11.2079 5.76969C11.2546 5.76969 11.2946 5.78636 11.3279 5.81969C11.3612 5.85303 11.3779 5.89192 11.3779 5.93636C11.3779 5.99636 11.3468 6.05081 11.2846 6.09969C11.2223 6.15081 11.139 6.19414 11.0346 6.22969C10.9301 6.26525 10.8246 6.28303 10.7179 6.28303C10.5312 6.28303 10.3679 6.24414 10.2279 6.16636C10.0901 6.08858 9.98345 5.98192 9.9079 5.84636C9.83234 5.70858 9.79456 5.55414 9.79456 5.38303C9.79456 5.19192 9.83456 5.02414 9.91456 4.87969C9.99456 4.73525 10.1001 4.62525 10.2312 4.54969C10.3623 4.47192 10.5023 4.43303 10.6512 4.43303C10.7979 4.43303 10.9357 4.47303 11.0646 4.55303C11.1957 4.63303 11.3001 4.74081 11.3779 4.87636C11.4557 5.01192 11.4946 5.15858 11.4946 5.31636ZM10.6512 4.79969C10.3935 4.79969 10.2412 4.92081 10.1946 5.16303H11.0679V5.13969C11.059 5.04636 11.0135 4.96636 10.9312 4.89969C10.849 4.83303 10.7557 4.79969 10.6512 4.79969Z" fill="#FBF9FA"/>
<path d="M13.2845 4.43303C13.3423 4.43303 13.3901 4.45192 13.4278 4.48969C13.4656 4.52747 13.4845 4.57636 13.4845 4.63636V6.04636C13.4845 6.10414 13.4656 6.15303 13.4278 6.19303C13.3901 6.23081 13.3423 6.24969 13.2845 6.24969C13.2267 6.24969 13.179 6.23081 13.1412 6.19303C13.1056 6.15525 13.0867 6.10747 13.0845 6.04969C13.029 6.11414 12.9534 6.16969 12.8578 6.21636C12.7645 6.26081 12.6656 6.28303 12.5612 6.28303C12.4078 6.28303 12.269 6.24414 12.1445 6.16636C12.0201 6.08636 11.9212 5.97636 11.8478 5.83636C11.7767 5.69636 11.7412 5.53747 11.7412 5.35969C11.7412 5.18192 11.7767 5.02303 11.8478 4.88303C11.919 4.74081 12.0156 4.63081 12.1378 4.55303C12.2623 4.47303 12.399 4.43303 12.5478 4.43303C12.6545 4.43303 12.7545 4.45303 12.8478 4.49303C12.9412 4.53081 13.0201 4.57969 13.0845 4.63969V4.63636C13.0845 4.57858 13.1034 4.53081 13.1412 4.49303C13.179 4.45303 13.2267 4.43303 13.2845 4.43303ZM12.6112 5.91636C12.7556 5.91636 12.8734 5.86414 12.9645 5.75969C13.0556 5.65303 13.1012 5.51969 13.1012 5.35969C13.1012 5.19969 13.0556 5.06636 12.9645 4.95969C12.8734 4.85303 12.7556 4.79969 12.6112 4.79969C12.469 4.79969 12.3523 4.85303 12.2612 4.95969C12.1701 5.06636 12.1245 5.19969 12.1245 5.35969C12.1245 5.51969 12.169 5.65303 12.2578 5.75969C12.349 5.86414 12.4667 5.91636 12.6112 5.91636Z" fill="#FBF9FA"/>
<path d="M15.2088 4.46636C15.2666 4.46636 15.3143 4.48636 15.3521 4.52636C15.3899 4.56414 15.4088 4.61192 15.4088 4.66969V5.51636C15.4088 5.75636 15.3421 5.94414 15.2088 6.07969C15.0777 6.21525 14.8899 6.28303 14.6454 6.28303C14.401 6.28303 14.2132 6.21525 14.0821 6.07969C13.951 5.94414 13.8854 5.75636 13.8854 5.51636V4.66969C13.8854 4.61192 13.9043 4.56414 13.9421 4.52636C13.9799 4.48636 14.0277 4.46636 14.0854 4.46636C14.1432 4.46636 14.191 4.48636 14.2288 4.52636C14.2666 4.56414 14.2854 4.61192 14.2854 4.66969V5.51636C14.2854 5.65192 14.3154 5.75303 14.3754 5.81969C14.4354 5.88414 14.5254 5.91636 14.6454 5.91636C14.7677 5.91636 14.8588 5.88414 14.9188 5.81969C14.9788 5.75303 15.0088 5.65192 15.0088 5.51636V4.66969C15.0088 4.61192 15.0277 4.56414 15.0654 4.52636C15.1032 4.48636 15.151 4.46636 15.2088 4.46636Z" fill="#FBF9FA"/>
<path d="M3.64013 10.6832C3.79346 10.6832 3.93235 10.7232 4.0568 10.8032C4.18124 10.881 4.27902 10.9899 4.35013 11.1299C4.42346 11.2699 4.46013 11.4288 4.46013 11.6065C4.46013 11.7843 4.42457 11.9443 4.35346 12.0865C4.28235 12.2265 4.18457 12.3365 4.06013 12.4165C3.93791 12.4943 3.80235 12.5332 3.65346 12.5332C3.5468 12.5332 3.44569 12.5121 3.35013 12.4699C3.2568 12.4254 3.17902 12.3721 3.1168 12.3099V12.9632C3.1168 13.021 3.09791 13.0688 3.06013 13.1065C3.02235 13.1465 2.97457 13.1665 2.9168 13.1665C2.85902 13.1665 2.81124 13.1477 2.77346 13.1099C2.73569 13.0721 2.7168 13.0232 2.7168 12.9632V10.9199C2.7168 10.8621 2.73569 10.8143 2.77346 10.7765C2.81124 10.7365 2.85902 10.7165 2.9168 10.7165C2.97457 10.7165 3.02235 10.7365 3.06013 10.7765C3.09791 10.8143 3.1168 10.8621 3.1168 10.9199V10.9332C3.17013 10.8665 3.24457 10.8088 3.34013 10.7599C3.43569 10.7088 3.53569 10.6832 3.64013 10.6832ZM3.59013 12.1665C3.73235 12.1665 3.84902 12.1132 3.94013 12.0065C4.03124 11.8999 4.0768 11.7665 4.0768 11.6065C4.0768 11.4465 4.03124 11.3143 3.94013 11.2099C3.85124 11.1032 3.73457 11.0499 3.59013 11.0499C3.44569 11.0499 3.32791 11.1032 3.2368 11.2099C3.14569 11.3143 3.10013 11.4465 3.10013 11.6065C3.10013 11.7665 3.14569 11.8999 3.2368 12.0065C3.32791 12.1132 3.44569 12.1665 3.59013 12.1665Z" fill="#FBF9FA"/>
<path d="M5.72029 10.6832C5.78695 10.6832 5.84251 10.7021 5.88695 10.7399C5.93362 10.7777 5.95695 10.8221 5.95695 10.8732C5.95695 10.9421 5.93918 10.9943 5.90362 11.0299C5.86806 11.0632 5.82584 11.0799 5.77695 11.0799C5.74362 11.0799 5.70584 11.0721 5.66362 11.0565C5.65695 11.0543 5.6414 11.0499 5.61695 11.0432C5.59473 11.0365 5.57029 11.0332 5.54362 11.0332C5.48584 11.0332 5.43029 11.051 5.37695 11.0865C5.32362 11.1221 5.27918 11.1765 5.24362 11.2499C5.21029 11.321 5.19362 11.4065 5.19362 11.5065V12.2965C5.19362 12.3543 5.17473 12.4032 5.13695 12.4432C5.09918 12.481 5.0514 12.4999 4.99362 12.4999C4.93584 12.4999 4.88806 12.481 4.85029 12.4432C4.81251 12.4032 4.79362 12.3543 4.79362 12.2965V10.9199C4.79362 10.8621 4.81251 10.8143 4.85029 10.7765C4.88806 10.7365 4.93584 10.7165 4.99362 10.7165C5.0514 10.7165 5.09918 10.7365 5.13695 10.7765C5.17473 10.8143 5.19362 10.8621 5.19362 10.9199V10.9632C5.24473 10.8721 5.31806 10.8032 5.41362 10.7565C5.50918 10.7077 5.6114 10.6832 5.72029 10.6832Z" fill="#FBF9FA"/>
<path d="M7.76406 11.5665C7.76184 11.6199 7.74073 11.6632 7.70073 11.6965C7.66073 11.7299 7.61406 11.7465 7.56073 11.7465H6.46073C6.4874 11.8777 6.54851 11.981 6.64406 12.0565C6.73962 12.1299 6.8474 12.1665 6.9674 12.1665C7.05851 12.1665 7.12962 12.1588 7.18073 12.1432C7.23184 12.1254 7.27184 12.1077 7.30073 12.0899C7.33184 12.0699 7.35295 12.0565 7.36406 12.0499C7.40406 12.0299 7.44184 12.0199 7.4774 12.0199C7.52406 12.0199 7.56406 12.0365 7.5974 12.0699C7.63073 12.1032 7.6474 12.1421 7.6474 12.1865C7.6474 12.2465 7.61628 12.301 7.55406 12.3499C7.49184 12.401 7.40851 12.4443 7.30406 12.4799C7.19962 12.5154 7.09406 12.5332 6.9874 12.5332C6.80073 12.5332 6.6374 12.4943 6.4974 12.4165C6.35962 12.3388 6.25295 12.2321 6.1774 12.0965C6.10184 11.9588 6.06406 11.8043 6.06406 11.6332C6.06406 11.4421 6.10406 11.2743 6.18406 11.1299C6.26406 10.9854 6.36962 10.8754 6.50073 10.7999C6.63184 10.7221 6.77184 10.6832 6.92073 10.6832C7.0674 10.6832 7.20517 10.7232 7.33406 10.8032C7.46517 10.8832 7.56962 10.991 7.6474 11.1265C7.72517 11.2621 7.76406 11.4088 7.76406 11.5665ZM6.92073 11.0499C6.66295 11.0499 6.51073 11.171 6.46406 11.4132H7.3374V11.3899C7.32851 11.2965 7.28295 11.2165 7.20073 11.1499C7.11851 11.0832 7.02517 11.0499 6.92073 11.0499ZM6.92406 10.6032C6.90184 10.6032 6.8774 10.5932 6.85073 10.5732C6.82628 10.5532 6.81517 10.5265 6.8174 10.4932C6.8174 10.4732 6.82406 10.4521 6.8374 10.4299L7.03073 10.0899C7.05295 10.0499 7.07962 10.0177 7.11073 9.99321C7.14184 9.96877 7.17628 9.95654 7.21406 9.95654C7.27406 9.95654 7.31851 9.9721 7.3474 10.0032C7.37851 10.0343 7.39295 10.0743 7.39073 10.1232C7.38628 10.1743 7.36517 10.2221 7.3274 10.2665L7.07406 10.5465C7.03851 10.5843 6.98851 10.6032 6.92406 10.6032Z" fill="#FBF9FA"/>
<path d="M8.25099 11.6765C8.19321 11.6765 8.14432 11.6577 8.10432 11.6199C8.06655 11.5821 8.04766 11.5343 8.04766 11.4765C8.04766 11.421 8.06655 11.3743 8.10432 11.3365C8.14432 11.2988 8.19321 11.2799 8.25099 11.2799H8.83099C8.88877 11.2799 8.93654 11.2999 8.97432 11.3399C9.01432 11.3777 9.03432 11.4254 9.03432 11.4832C9.03432 11.5388 9.01432 11.5854 8.97432 11.6232C8.93654 11.6588 8.88877 11.6765 8.83099 11.6765H8.25099Z" fill="#FBF9FA"/>
<path fill-rule="evenodd" clip-rule="evenodd" d="M10 18.75C14.8325 18.75 18.75 14.8325 18.75 10C18.75 5.16751 14.8325 1.25 10 1.25C5.16751 1.25 1.25 5.16751 1.25 10C1.25 14.8325 5.16751 18.75 10 18.75ZM10 20C15.5228 20 20 15.5228 20 10C20 4.47715 15.5228 0 10 0C4.47715 0 0 4.47715 0 10C0 15.5228 4.47715 20 10 20Z" fill="#FBF9FA"/>
<path d="M13.7934 13.9006C13.8226 13.9764 13.8371 14.0464 13.8371 14.1106C13.8371 14.2623 13.7876 14.3877 13.6884 14.4869C13.5892 14.5802 13.4755 14.6269 13.3471 14.6269C13.2421 14.6269 13.1459 14.5948 13.0584 14.5306C12.9767 14.4664 12.9126 14.3789 12.8659 14.2681L12.4109 13.2094H9.8034L9.3484 14.2769C9.30757 14.3877 9.2434 14.4752 9.1559 14.5394C9.07423 14.5977 8.98382 14.6269 8.88465 14.6269C8.73298 14.6269 8.61632 14.586 8.53465 14.5044C8.45882 14.4227 8.4209 14.3119 8.4209 14.1719C8.4209 14.1194 8.42965 14.0639 8.44715 14.0056L10.6259 8.7731C10.6726 8.65644 10.7426 8.56602 10.8359 8.50185C10.9292 8.43769 11.0342 8.41144 11.1509 8.4231C11.2559 8.4231 11.3521 8.45519 11.4396 8.51935C11.533 8.57769 11.6001 8.66227 11.6409 8.7731L13.7934 13.9006ZM11.9821 12.2031L11.0984 10.1556L10.2321 12.2031H11.9821Z" fill="#FBF9FA"/>
<path d="M15.9343 8.4581C16.0801 8.4581 16.2026 8.5106 16.3018 8.6156C16.4009 8.71477 16.4505 8.84019 16.4505 8.99185V14.0494C16.4505 14.201 16.3951 14.3294 16.2843 14.4344C16.1734 14.5335 16.0364 14.5831 15.873 14.5831C15.7097 14.5831 15.5755 14.5335 15.4705 14.4344C15.3655 14.3294 15.313 14.201 15.313 14.0494V9.90185L14.7705 10.2344C14.683 10.2869 14.5897 10.3131 14.4905 10.3131C14.3447 10.3131 14.2193 10.2577 14.1143 10.1469C14.0151 10.036 13.9655 9.91352 13.9655 9.77935C13.9655 9.68602 13.9889 9.59852 14.0355 9.51685C14.088 9.43519 14.1551 9.37102 14.2368 9.32435L15.558 8.53685C15.6572 8.48435 15.7826 8.4581 15.9343 8.4581Z" fill="#FBF9FA"/>
</svg>

<svg width="20" height="20" fill="none" xmlns="http://www.w3.org/2000/svg"><path d="M6.604 3.916a.17.17 0 01.13.054c.033.035.05.08.05.133v1.943a.2.2 0 01-.204.204.338.338 0 01-.093-.014.139.139 0 01-.064-.043L5.2 4.64v1.423a.18.18 0 01-.053.133.174.174 0 01-.134.054.17.17 0 01-.13-.054.187.187 0 01-.05-.133V4.12a.2.2 0 01.203-.203c.034 0 .066.006.098.02a.158.158 0 01.073.053L6.42 5.536V4.103c0-.053.017-.098.05-.133a.18.18 0 01.134-.054zM7.628 6.046a.206.206 0 01-.057.147.194.194 0 01-.143.057.194.194 0 01-.143-.057.206.206 0 01-.057-.147V4.67c0-.058.019-.106.057-.144a.189.189 0 01.143-.06c.058 0 .106.02.143.06a.194.194 0 01.057.144v1.376zM7.425 4.25c-.076 0-.13-.013-.16-.037-.031-.024-.047-.068-.047-.13V4.02c0-.063.017-.106.05-.13.033-.025.087-.037.16-.037.078 0 .132.012.163.037.031.024.047.067.047.13v.063c0 .064-.017.109-.05.133-.031.023-.086.034-.163.034zM9.41 4.47a.18.18 0 01.132.053.166.166 0 01.054.127c0 .026-.01.06-.027.1l-.623 1.373a.202.202 0 01-.17.127l-.03.003a.189.189 0 01-.107-.033.249.249 0 01-.073-.097l-.62-1.373a.264.264 0 01-.024-.107c0-.044.02-.084.057-.12a.19.19 0 01.14-.057c.042 0 .081.011.117.034a.206.206 0 01.08.093l.46 1.053.456-1.05a.22.22 0 01.074-.096.157.157 0 01.103-.03zM11.495 5.316a.171.171 0 01-.064.13.212.212 0 01-.14.05h-1.1a.51.51 0 00.507.42.765.765 0 00.213-.023.63.63 0 00.184-.093c.04-.02.077-.03.113-.03.047 0 .087.016.12.05a.16.16 0 01.05.116c0 .06-.031.115-.093.164a.977.977 0 01-.567.183.993.993 0 01-.49-.117.82.82 0 01-.32-.32.947.947 0 01-.113-.463c0-.191.04-.359.12-.503a.84.84 0 01.736-.447.77.77 0 01.414.12.893.893 0 01.43.763zM10.65 4.8c-.258 0-.41.12-.456.363h.873V5.14a.344.344 0 00-.137-.24.432.432 0 00-.28-.1zM13.284 4.433a.194.194 0 01.2.203v1.41a.206.206 0 01-.056.147.194.194 0 01-.144.057.194.194 0 01-.143-.057.213.213 0 01-.056-.143.698.698 0 01-.227.166.681.681 0 01-.297.067.77.77 0 01-.416-.117.856.856 0 01-.297-.33 1.038 1.038 0 01-.107-.476c0-.178.036-.337.107-.477a.81.81 0 01.29-.33.743.743 0 01.41-.12c.107 0 .207.02.3.06a.762.762 0 01.236.147v-.004c0-.057.02-.105.057-.143a.189.189 0 01.143-.06zm-.673 1.483a.447.447 0 00.353-.156.594.594 0 00.137-.4.594.594 0 00-.137-.4.443.443 0 00-.353-.16.44.44 0 00-.35.16.594.594 0 00-.136.4c0 .16.044.293.133.4a.447.447 0 00.353.156zM15.209 4.466c.058 0 .105.02.143.06a.194.194 0 01.057.144v.846c0 .24-.067.428-.2.564-.131.135-.32.203-.564.203-.244 0-.432-.068-.563-.203-.131-.136-.197-.324-.197-.564V4.67c0-.058.02-.106.057-.144a.189.189 0 01.143-.06c.058 0 .106.02.144.06a.194.194 0 01.056.144v.846c0 .136.03.237.09.304.06.064.15.096.27.096.123 0 .214-.032.274-.096.06-.067.09-.168.09-.304V4.67c0-.058.019-.106.056-.144a.189.189 0 01.144-.06zM3.64 10.683c.153 0 .292.04.417.12a.806.806 0 01.293.327c.073.14.11.299.11.476 0 .178-.035.338-.107.48a.83.83 0 01-.293.33.742.742 0 01-.407.117.743.743 0 01-.536-.223v.653a.194.194 0 01-.057.144.189.189 0 01-.143.06.194.194 0 01-.2-.204V10.92c0-.058.019-.106.056-.143a.189.189 0 01.144-.06c.058 0 .105.02.143.06a.194.194 0 01.057.143v.013a.672.672 0 01.223-.173.628.628 0 01.3-.077zm-.05 1.483a.44.44 0 00.35-.16.594.594 0 00.137-.4.581.581 0 00-.137-.396.433.433 0 00-.35-.16.443.443 0 00-.353.16.581.581 0 00-.137.396c0 .16.046.294.137.4.09.107.209.16.353.16zM5.72 10.683c.067 0 .123.02.167.057.047.038.07.082.07.133 0 .07-.018.121-.053.157a.18.18 0 01-.127.05.332.332 0 01-.113-.024 1.324 1.324 0 00-.047-.013.253.253 0 00-.073-.01.297.297 0 00-.167.053.4.4 0 00-.133.164.6.6 0 00-.05.257v.79a.206.206 0 01-.057.146.194.194 0 01-.143.057.194.194 0 01-.144-.057.206.206 0 01-.056-.146V10.92c0-.058.019-.106.056-.143a.189.189 0 01.144-.06c.057 0 .105.02.143.06a.194.194 0 01.057.143v.043a.495.495 0 01.22-.206.665.665 0 01.306-.074zM7.764 11.566a.171.171 0 01-.063.13.212.212 0 01-.14.05h-1.1a.51.51 0 00.506.42.763.763 0 00.214-.023.63.63 0 00.183-.093c.04-.02.078-.03.113-.03.047 0 .087.017.12.05a.16.16 0 01.05.117c0 .06-.03.114-.093.163a.978.978 0 01-.567.183.992.992 0 01-.49-.117.82.82 0 01-.32-.32.947.947 0 01-.113-.463c0-.19.04-.359.12-.503a.84.84 0 01.737-.447.77.77 0 01.413.12.893.893 0 01.43.763zm-.843-.516c-.258 0-.41.121-.457.363h.873v-.023a.344.344 0 00-.136-.24.432.432 0 00-.28-.1zm.003-.447a.126.126 0 01-.073-.03.09.09 0 01-.034-.08c0-.02.007-.04.02-.063l.194-.34a.316.316 0 01.08-.097.163.163 0 01.103-.036c.06 0 .105.015.133.046a.152.152 0 01.044.12.252.252 0 01-.064.144l-.253.28a.196.196 0 01-.15.056zM8.251 11.677a.206.206 0 01-.147-.057.194.194 0 01-.056-.143.19.19 0 01.056-.14.206.206 0 01.147-.057h.58c.058 0 .106.02.143.06.04.038.06.085.06.143 0 .056-.02.102-.06.14a.2.2 0 01-.143.054h-.58z" fill="#FBF9FA"/><path fill-rule="evenodd" clip-rule="evenodd" d="M10 18.75a8.75 8.75 0 100-17.5 8.75 8.75 0 000 17.5zM10 20c5.523 0 10-4.477 10-10S15.523 0 10 0 0 4.477 0 10s4.477 10 10 10z" fill="#FBF9FA"/><path d="M13.793 13.9c.03.076.044.146.044.21a.51.51 0 01-.149.377.484.484 0 01-.63.044.643.643 0 01-.192-.263l-.455-1.059H9.803l-.455 1.068a.554.554 0 01-.192.262.456.456 0 01-.271.088c-.152 0-.269-.041-.35-.123a.47.47 0 01-.114-.332c0-.053.009-.108.026-.166l2.179-5.233a.581.581 0 01.21-.271.458.458 0 01.315-.079c.105 0 .201.032.289.096.093.059.16.143.2.254l2.153 5.128zm-1.81-1.697l-.885-2.047-.866 2.047h1.75zM15.934 8.458c.146 0 .269.053.368.158.099.099.149.224.149.376v5.057a.51.51 0 01-.167.385.595.595 0 01-.411.15.563.563 0 01-.402-.15.524.524 0 01-.158-.385V9.902l-.543.332a.535.535 0 01-.28.08.5.5 0 01-.376-.167.539.539 0 01-.149-.368c0-.093.024-.18.07-.262a.577.577 0 01.202-.193l1.321-.787a.8.8 0 01.376-.079z" fill="#FBF9FA"/></svg>
